X: 24907
T: Maho Snaps, The
R: jig
M: 6/8
K: Gmajor
|:~G3 GBd|gdB GAB|cBc EFG|AFD DEF|
~G3 GBd|gdB GAB|cGE AFD|1 GAG G2D:|2 GAG G2d||
|:dBd ece|fdf gfe|dBd efg|fd^c dB=c|
dBd ece|fdf gfe|dcB Aaf|1 gGG G2d:|2 gGG G2D||

